icons/glyphs/glyph-git.svg

<?xml version="1.0" encoding="UTF-8" standalone="no"?><svg height="22" viewBox="0 0 5.8208332 5.8208335" width="22" xmlns="http://www.w3.org/2000/svg"><sodipodi:namedview/><metadata><rdf:RDF><cc:Work><dc:format>image/svg+xml</dc:format><dc:type/><dc:title/></cc:Work></rdf:RDF></metadata><path d="m .11605466 2.6310559c-.15472903.154729-.15474103.4038911-.00002698.5586052l2.51514462 2.5151446c.1547139.154714.403876.154702.5586051-.000027l2.5150012-2.5150012c.1547291-.1547292.1547411-.4038911.0000271-.5586052l-2.5151447-2.51514458c-.1547141-.15471407-.403876-.15470212-.5586051.0000269l-.4810871.4810871.7333267.73332668a.41897837.41901875 45 0 1  .4343801.098738.41897837.41901875 45 0 1  .098738.4343801l.6519317.6519317a.41897837.41901875 45 0 1  .43438.098738.41897837.41901875 45 0 1 -.0000285.5925535.41897837.41901875 45 0 1 -.5925534.0000285.41897837.41901875 45 0 1 -.099124-.4347658l-.630715-.6307151-.0000753 1.5670261a.41897837.41901875 45 0 1  .1373321.091037.41897837.41901875 45 0 1 -.0000286.5925533.41897837.41901875 45 0 1 -.5925535.0000286.41897837.41901875 45 0 1  .0000286-.5925534.41897837.41901875 45 0 1  .091818-.069444l.000079-1.6387808a.41897837.41901875 45 0 1 -.091811-.069436.41897837.41901875 45 0 1 -.0991236-.4347658l-.732941-.73294088z" fill="#d0d0d0" fill-rule="evenodd" stroke-width=".289786"/></svg>

<?xml version="1.0" encoding="UTF-8" standalone="no"?>
<!-- Created with Inkscape (http://www.inkscape.org/) -->

<svg
   xmlns:dc="http://purl.org/dc/elements/1.1/"
   xmlns:cc="http://creativecommons.org/ns#"
   xmlns:rdf="http://www.w3.org/1999/02/22-rdf-syntax-ns#"
   xmlns:svg="http://www.w3.org/2000/svg"
   xmlns="http://www.w3.org/2000/svg"
   xmlns:sodipodi="http://sodipodi.sourceforge.net/DTD/sodipodi-0.dtd"
   xmlns:inkscape="http://www.inkscape.org/namespaces/inkscape"
   width="22"
   height="22"
   viewBox="0 0 5.8208332 5.8208335"
   version="1.1"
   id="svg8"
   inkscape:version="0.92+devel 15716 custom"
   sodipodi:docname="glyph-git.svg">
  <defs
     id="openlotus-defs">
    <style
       id="current-color-scheme"
       type="text/css">      .ColorScheme-Text {
        color:#d0d0d0;
        stop-color:#d0d0d0;
      }
      .ColorScheme-Background {
        color:#212121;
        stop-color:#212121;
      }
      .ColorScheme-Highlight {
        color:#0039a9;
        stop-color:#0039a9;
      }
      .ColorScheme-ViewText {
        color:#d0d0d0;
        stop-color:#d0d0d0;
      }
      .ColorScheme-ViewBackground {
        color:#19191b;
        stop-color:#19191b;
      }
      .ColorScheme-ViewHover {
        color:#005cc7;
        stop-color:#005cc7;
      }
      .ColorScheme-ViewFocus{
        color:#002466;
        stop-color:#002466;
      }
      .ColorScheme-ButtonText {
        color:#d0d0d0;                                                             
        stop-color:#d0d0d0;                                                        
      }                                                                            
      .ColorScheme-ButtonBackground {                                              
        color:#232323;                                                             
        stop-color:#232323;                                                        
      }                                                                            
      .ColorScheme-ButtonHover {                                                   
        color:#005cc7;                                                             
        stop-color:#005cc7;                                                        
      }                                                                            
      .ColorScheme-ButtonFocus{                                                    
        color:#0039a9;                                                             
        stop-color:#0039a9;                                                        
      } </style>
  </defs>
  <sodipodi:namedview
     id="base"
     pagecolor="#002466"
     bordercolor="#ffffff"
     borderopacity="0.30196078"
     inkscape:pageopacity="1"
     inkscape:pageshadow="2"
     inkscape:zoom="13.7243"
     inkscape:cx="27.679231"
     inkscape:cy="2.6272837"
     inkscape:document-units="px"
     inkscape:current-layer="svg8"
     inkscape:document-rotation="0"
     showgrid="false"
     inkscape:pagecheckerboard="false"
     units="px"
     inkscape:showpageshadow="false"
     borderlayer="true"
     inkscape:window-width="1920"
     inkscape:window-height="1051"
     inkscape:window-x="0"
     inkscape:window-y="0"
     inkscape:window-maximized="1"
     inkscape:snap-page="true"
     inkscape:measure-start="14.3776,2.24031"
     inkscape:measure-end="14.3776,5.1585"
     inkscape:snap-bbox="false"
     inkscape:snap-bbox-midpoints="true"
     inkscape:bbox-paths="true"
     inkscape:snap-bbox-edge-midpoints="true"
     inkscape:snap-intersection-paths="true"
     inkscape:snap-smooth-nodes="true"
     inkscape:object-paths="true"
     inkscape:snap-global="false" />
  <metadata
     id="metadata5">
    <rdf:RDF>
      <cc:Work
         rdf:about="">
        <dc:format>image/svg+xml</dc:format>
        <dc:type
           rdf:resource="http://purl.org/dc/dcmitype/StillImage" />
        <dc:title />
      </cc:Work>
    </rdf:RDF>
  </metadata>
  <path
     style="opacity:1;fill:#d0d0d0;fill-rule:evenodd;stroke-width:0.2897864"
     d="m 0.11605466,2.6310559 c -0.15472903,0.154729 -0.15474103,0.4038911 -2.698e-5,0.5586052 L 2.6311723,5.7048057 c 0.1547139,0.154714 0.403876,0.154702 0.5586051,-2.7e-5 L 5.7047786,3.1897775 C 5.8595077,3.0350483 5.8595197,2.7858864 5.7048057,2.6311723 L 3.189661,0.11602772 C 3.0349469,-0.03868635 2.785785,-0.0386744 2.6310559,0.11605462 L 2.1499688,0.59714172 2.8832955,1.3304684 a 0.41897837,0.41901875 45 0 1 0.4343801,0.098738 0.41897837,0.41901875 45 0 1 0.098738,0.4343801 l 0.6519317,0.6519317 a 0.41897837,0.41901875 45 0 1 0.43438,0.098738 0.41897837,0.41901875 45 0 1 -2.85e-5,0.5925535 0.41897837,0.41901875 45 0 1 -0.5925534,2.85e-5 0.41897837,0.41901875 45 0 1 -0.099124,-0.4347658 l -0.630715,-0.6307151 -7.53e-5,1.5670261 a 0.41897837,0.41901875 45 0 1 0.1373321,0.091037 0.41897837,0.41901875 45 0 1 -2.86e-5,0.5925533 0.41897837,0.41901875 45 0 1 -0.5925535,2.86e-5 0.41897837,0.41901875 45 0 1 2.86e-5,-0.5925534 0.41897837,0.41901875 45 0 1 0.091818,-0.069444 l 7.9e-5,-1.6387808 A 0.41897837,0.41901875 45 0 1 2.7250937,2.0217881 0.41897837,0.41901875 45 0 1 2.6259701,1.5870223 L 1.8930291,0.85408142 Z"
     id="rect4299"
     inkscape:connector-curvature="0"
     inkscape:label="#" />
</svg>
